public/flex-ui-assets/logos/logo_light.svg

<?xml version="1.0" encoding="UTF-8"?><svg version="1.1" width="78px" height="25px" viewBox="0 0 78.0 25.0" xmlns="http://www.w3.org/2000/svg" xmlns:xlink="http://www.w3.org/1999/xlink"><defs><clipPath id="i0"><path d="M1920,0 L1920,1080 L0,1080 L0,0 L1920,0 Z"></path></clipPath><clipPath id="i1"><path d="M46.7806096,1.77635684e-15 C47.4480567,1.77635684e-15 48.0042627,0.201288161 48.4492275,0.603864484 C48.8941923,1.00644081 49.0888644,1.48450019 49.0332438,2.03804263 L49.0324062,6.99 L55.4782104,6.99007114 C56.2368109,6.99007114 56.8294675,7.37141918 57.2561802,8.13411526 C57.3510053,8.460985 57.3984178,8.78785475 57.3984178,9.1147245 C57.3984178,9.76846399 57.2087677,10.3132469 56.8294675,10.7490732 C56.4501672,11.1848996 55.9997482,11.3755736 55.4782104,11.3210953 L49.0314062,11.321 L48.9624062,15.061 L48.967401,15.2709313 C49.0510028,17.7594313 50.4008714,19.9948054 52.9012613,20.3908283 C55.350358,20.7787271 57.654208,19.2331202 58.2251788,16.8933307 C58.2108278,16.7838912 58.2003924,16.6739893 58.1920266,16.5634855 C58.1753031,16.342584 58.1920266,16.0547388 58.1920266,15.8296236 C58.1920266,12.1827474 60.4258481,9.05003015 63.6186396,7.68780654 L63.5795939,7.61801942 L63.5955265,7.62924218 C63.6197257,7.63686165 63.6692453,7.63920493 63.7404002,7.6371399 C64.8046897,7.2014787 65.9692694,6.96166649 67.1906859,6.96166649 C67.7700055,6.96166649 68.3365389,7.01561509 68.8853954,7.11869242 C69.0381974,7.12070796 69.1616142,7.13043147 69.248484,7.1499064 C70.65029,7.46417071 72.9347415,7.21254629 74.0628135,6.19495357 L74.1184061,6.14396499 C74.9558797,5.36300817 76.2805876,5.42245469 77.0772238,6.2767425 C77.8738601,7.13103032 77.8407549,8.45665801 77.0032812,9.23761483 C76.2800709,9.91201937 75.4703488,10.4372045 74.6111811,10.8148335 C75.6070342,12.2397005 76.1893452,13.9676468 76.1893452,15.8296236 C76.1893452,20.727261 72.1605082,24.6975806 67.1906859,24.6975806 C64.487538,24.6975806 62.0545695,23.5440247 60.3980036,21.7025918 C58.4278096,23.9015802 55.3956108,25.0860504 52.2368507,24.585752 C50.4415649,24.3014066 48.8533336,23.512111 47.5972935,22.387995 L47.5975244,22.4835417 C47.5975244,23.6485781 46.6530758,24.5930267 45.4880394,24.5930267 C44.323003,24.5930267 43.3785544,23.6485781 43.3785544,22.4835417 L43.3785544,15.2560132 C43.3740492,12.7237099 41.2962623,10.6708726 38.7331822,10.6708726 C36.228068,10.6708726 34.1865446,12.6319072 34.095485,15.0849577 L34.0968204,21.9833445 C34.0968204,23.1483809 33.1523718,24.0928295 31.9873354,24.0928295 C30.822299,24.0928295 29.8778504,23.1483809 29.8778504,21.9833445 L29.8770348,21.3201701 C28.2172938,23.3631217 25.6641955,24.6716495 22.8007388,24.6716495 C20.0606223,24.6716495 17.5963296,23.49487 15.9283379,21.6197466 C13.9557751,23.8734102 10.8751686,25.0942507 7.66321215,24.5855268 C3.23197322,23.8836875 0.0557547198,20.1283114 0.0039064286,15.8511791 L0.000842860905,15.7666878 C0.00449525816,15.4003685 0.0200179465,13.8435116 0.0474109259,11.0961171 L0.0474109259,7.1491761 L0,2.01070578 C0,1.21635288 0.428871527,0.595764675 1.19179273,0.148941169 C1.51875896,0.0496470562 1.84572519,1.77635684e-15 2.17269142,1.77635684e-15 C2.82662388,1.77635684e-15 3.3715676,0.198588225 3.80752257,0.595764675 C4.24347754,0.992941124 4.38256848,1.46458816 4.3280741,2.01070578 L4.328,6.863 L8.56740153,6.86290194 C8.85448045,6.8491677 9.14430426,6.84889318 9.43611461,6.86262053 L10.5337278,6.86376768 C11.2950956,6.86376768 11.8899142,7.25794593 12.3181836,8.04630245 C12.4133546,8.38416952 12.4609401,8.7220366 12.4609401,9.05990368 C12.4609401,9.73563783 12.2705981,10.2987496 11.8899142,10.7492391 C11.5092303,11.1997285 11.0571682,11.3968176 10.5337278,11.3405065 L4.328,11.34 L4.33111134,15.5930089 C4.33266139,15.6137688 4.33329686,15.6342757 4.33275235,15.6544696 C4.27045659,17.9648101 5.94615981,20.0134558 8.3276167,20.3906416 C10.889671,20.7964311 13.2921763,19.1013432 13.7316164,16.5946441 L13.74433,16.5184364 C13.7446575,16.5060757 13.7440639,16.4983761 13.7434804,16.4906735 C13.7266479,16.2684989 13.7434804,15.9789947 13.7434804,15.7525819 C13.7434804,10.826717 17.7985531,6.83351442 22.8007388,6.83351442 C26.2252676,6.83351442 29.2058977,8.70507269 30.7453922,11.4661675 C32.174484,8.52942236 35.2142572,6.50256298 38.7331822,6.50256298 C40.9890059,6.50256298 43.0479215,7.33550331 44.6120408,8.70707262 L44.6114062,2.03804263 C44.6114062,1.23288999 45.0007504,0.603864484 45.7794388,0.150966121 C46.1131624,0.0503220403 46.446886,1.77635684e-15 46.7806096,1.77635684e-15 Z M67.1906859,11.1845032 C64.5874456,11.1845032 62.4771025,13.2641944 62.4771025,15.8296236 C62.4771025,16.0055407 62.4870256,16.1791738 62.5063504,16.3500089 C62.5403383,16.4749046 62.5603735,16.6043196 62.5680055,16.7361872 C62.9950745,18.8679335 64.9024692,20.4747439 67.1906859,20.4747439 C69.7939261,20.4747439 71.9042693,18.3950527 71.9042693,15.8296236 C71.9042693,13.2641944 69.7939261,11.1845032 67.1906859,11.1845032 Z M22.8007388,11.0806894 C20.1805463,11.0806894 18.0564606,13.172367 18.0564606,15.7525819 C18.0564606,18.3327969 20.1805463,20.4244745 22.8007388,20.4244745 C25.4209313,20.4244745 27.5450171,18.3327969 27.5450171,15.7525819 C27.5450171,13.172367 25.4209313,11.0806894 22.8007388,11.0806894 Z"></path></clipPath></defs><g transform="translate(-70.0 -283.0)"><g clip-path="url(#i0)"><g transform="translate(58.0 271.0)"><g transform="translate(12.15234375 12.249999999999993)"><g clip-path="url(#i1)"><polygon points="0,1.77635684e-15 77.6537011,1.77635684e-15 77.6537011,24.7000726 0,24.7000726 0,1.77635684e-15" stroke="none" fill="#009E90"></polygon></g></g></g></g></g></svg>

<svg width="78" height="25" viewBox="0 0 78 25" xmlns="http://www.w3.org/2000/svg">
    <defs>
        <clipPath id="a">
            <path d="M1920 0v1080H0V0h1920Z"/>
        </clipPath>
        <clipPath id="b">
            <path d="M46.78 0c.668 0 1.224.201 1.67.604.444.402.639.88.583 1.434V6.99h6.445c.759 0 1.351.381 1.778 1.144.095.327.142.654.142.98 0 .654-.19 1.2-.569 1.635-.379.436-.83.627-1.35.572H49.03l-.069 3.74.005.21c.084 2.488 1.434 4.724 3.934 5.12 2.45.388 4.753-1.158 5.324-3.498a6.044 6.044 0 0 1-.033-.33c-.017-.22 0-.508 0-.733 0-3.647 2.234-6.78 5.427-8.142l-.04-.07.017.011c.024.008.073.01.144.008a9.176 9.176 0 0 1 5.145-.518c.153.002.277.011.363.03 1.402.315 3.687.064 4.815-.954l.055-.051c.838-.781 2.163-.722 2.96.133.796.854.763 2.18-.075 2.96a8.542 8.542 0 0 1-2.392 1.578 8.722 8.722 0 0 1 1.578 5.015c0 4.897-4.028 8.868-8.998 8.868a9.113 9.113 0 0 1-6.793-2.995 9.04 9.04 0 0 1-8.161 2.883 9.059 9.059 0 0 1-4.64-2.198v.096a2.11 2.11 0 1 1-4.218 0v-7.228c-.005-2.532-2.083-4.585-4.646-4.585-2.505 0-4.546 1.96-4.638 4.414l.002 6.898a2.11 2.11 0 1 1-4.22 0v-.663a9.093 9.093 0 0 1-7.076 3.352c-2.74 0-5.205-1.177-6.873-3.052a9.078 9.078 0 0 1-8.265 2.966C3.232 23.884.056 20.128.003 15.85l-.002-.084.046-4.67V7.148L0 2.011C0 1.216.429.596 1.192.149c.327-.1.654-.149.98-.149.655 0 1.2.199 1.636.596.435.397.575.869.52 1.415v4.852h4.24c.286-.014.576-.014.868 0h1.098c.761 0 1.356.395 1.784 1.183.095.338.143.676.143 1.014 0 .676-.19 1.239-.571 1.69-.38.45-.833.647-1.356.59H4.328l.003 4.253c.002.02.002.041.002.061-.063 2.31 1.613 4.36 3.995 4.737 2.562.405 4.964-1.29 5.404-3.796l.012-.077v-.027c-.017-.223 0-.512 0-.738 0-4.926 4.055-8.92 9.057-8.92a9.077 9.077 0 0 1 7.944 4.633 8.867 8.867 0 0 1 7.988-4.963 8.89 8.89 0 0 1 5.879 2.204V2.038c0-.805.389-1.434 1.167-1.887A3.48 3.48 0 0 1 46.781 0Zm20.41 11.185c-2.603 0-4.713 2.08-4.713 4.645 0 .176.01.35.03.52.033.125.053.254.061.386.427 2.132 2.334 3.739 4.623 3.739 2.603 0 4.713-2.08 4.713-4.645 0-2.566-2.11-4.645-4.713-4.645ZM22.8 11.08c-2.62 0-4.744 2.091-4.744 4.672 0 2.58 2.125 4.671 4.745 4.671s4.744-2.091 4.744-4.671-2.124-4.672-4.744-4.672Z"/>
        </clipPath>
    </defs>
    <g clip-path="url(#a)" transform="translate(-70 -283)">
        <g clip-path="url(#b)" transform="translate(70.152 283.25)">
            <path fill="#009E90" d="M0 0h77.654v24.7H0V0z"/>
        </g>
    </g>
</svg>
